X: 556
T: Miss Eliza Campbell of Shawfield's fancy
%R: jig
B: "Twenty Four Country Dances for the Year 1805", Tho. Preston, ed. p.238 #2
F: http://folkopedia.efdss.org/images/archive/0/02/20121211105513%21Preston_24_1805.PDF
Z: 2014 John Chambers <jc:trillian.mit.edu>
N: The "Gent" in the dance seems to be actually spelled "Cent".
M: 6/8
L: 1/8
K: G
E/F/ |\
G2G GFG | ABc B2e |\
cBA BAG | AGF E2F |\
G2G GFG | ABc B2e |
BcB AGF | E3 E2 :|\
|: B |\
eBe gfe | ^def Bcd |\
eBe gfe | faf d2f |
[1 eBe gfe | ^def Bba |\
gfe fe^d | e3 E2 :|\
[2 efg fga | gfe dcB |\
ABc BAG | {B}AGF E2 |]
%%begintext align
%% 1st Cu. set to the 2d Lady and hands 3 round.
%% the same with the 2d Gent.n lead down the
%% middle up again. right and left
%%endtext

%%sep 1 1 500
%%sep 1 1 500
